build/images/telephone.svg

<?xml version="1.0" encoding="UTF-8"?>
<svg width="25px" height="24px" viewBox="0 0 25 24" version="1.1" xmlns="http://www.w3.org/2000/svg" xmlns:xlink="http://www.w3.org/1999/xlink">
    <!-- Generator: sketchtool 63.1 (101010) - https://sketch.com -->
    <title>6D1D8453-5659-4218-AB07-7E6F242C9717</title>
    <desc>Created with sketchtool.</desc>
    <g id="Page-1" stroke="none" stroke-width="1" fill="none" fill-rule="evenodd">
        <g id="Kupa-shop-main-1" transform="translate(-833.000000, -38.000000)" fill="#333333" fill-rule="nonzero">
            <g id="header" transform="translate(0.000000, 20.000000)">
                <g id="telephone" transform="translate(833.867708, 18.000000)">
                    <path d="M23.4068724,17.7015469 L20.4202177,14.718 C19.5967983,13.8954844 18.2569354,13.8954844 17.4335629,14.718 L16.0760097,16.0741406 C15.4522043,16.6972969 14.437148,16.6971094 13.8135773,16.074375 L7.92932925,10.1912344 C7.30406924,9.566625 7.30397539,8.55567188 7.92932925,7.93096875 C8.14799429,7.71253125 8.77588203,7.08529688 9.28688252,6.57482813 C10.1066887,5.75592188 10.1181381,4.421625 9.28608481,3.59053125 L6.30022778,0.61715625 C5.47680845,-0.205359375 4.13699238,-0.205359375 3.31577847,0.615 C2.70126401,1.22353125 2.50305776,1.41984375 2.22752104,1.69270313 C-0.741818799,4.65890625 -0.741818799,9.48529688 2.22738027,12.4514063 L11.5507695,21.7699688 C14.5270541,24.7432031 19.3442543,24.7434375 22.3207735,21.7699688 L23.4068724,20.6850469 C24.2302917,19.8624844 24.2302917,18.5241094 23.4068724,17.7015469 Z M4.30915591,1.61165625 C4.58361338,1.33748438 5.03014053,1.3374375 5.30548955,1.61240625 L8.29134658,4.58578125 C8.56646099,4.86060938 8.56646099,5.30540625 8.29134658,5.58028125 L7.79353169,6.07753125 L3.81392183,2.1020625 L4.30915591,1.61165625 Z M12.5464932,20.7756094 L3.22305698,11.4569531 C0.925760205,9.16204687 0.799488184,5.55853125 2.83471538,3.11292187 L6.80278198,7.07685937 C5.76013452,8.25759375 5.80358599,10.0567969 6.93355869,11.1855937 L12.817619,17.0684531 C12.817666,17.0685 12.8177598,17.0685937 12.8178067,17.0686406 C13.9465594,18.1962656 15.7475429,18.2424844 16.9309618,17.1995156 L20.8991223,21.1635469 C18.4587547,23.1931406 14.8596033,23.0863125 12.5464932,20.7756094 Z M22.4113834,19.6905469 L21.9135685,20.1878437 L17.9313778,16.20975 L18.4290989,15.7125 C18.7036033,15.4383281 19.1501773,15.4382812 19.4246817,15.7125 L22.4113365,18.6960469 C22.6858409,18.9702656 22.6858409,19.4164219 22.4113834,19.6905469 Z" id="Shape"></path>
                </g>
            </g>
        </g>
    </g>
</svg>

<svg width="25" height="24" xmlns="http://www.w3.org/2000/svg"><g id="Page-1" stroke="none" stroke-width="1" fill="none" fill-rule="evenodd"><g id="Kupa-shop-main-1" transform="translate(-833 -38)" fill="#333" fill-rule="nonzero"><g id="header" transform="translate(0 20)"><g id="telephone" transform="translate(833.868 18)"><path d="M23.407 17.702l-2.987-2.984a2.116 2.116 0 00-2.986 0l-1.358 1.356a1.603 1.603 0 01-2.262 0l-5.885-5.883a1.596 1.596 0 010-2.26l1.358-1.356a2.107 2.107 0 000-2.984L6.3.617A2.115 2.115 0 003.316.615L2.228 1.693a7.608 7.608 0 000 10.758l9.323 9.319a7.617 7.617 0 0010.77 0l1.086-1.085a2.11 2.11 0 000-2.983zM4.309 1.612a.706.706 0 01.996 0l2.986 2.974a.702.702 0 010 .994l-.497.498-3.98-3.976.495-.49zm8.237 19.164l-9.323-9.319a6.178 6.178 0 01-.388-8.344l3.968 3.964a3 3 0 00.13 4.109l5.885 5.882a3.007 3.007 0 004.113.132l3.968 3.964a6.182 6.182 0 01-8.353-.388zm9.865-1.085l-.497.497-3.983-3.978.498-.498a.705.705 0 01.996 0l2.986 2.984a.703.703 0 010 .995z" id="Shape"/></g></g></g></g></svg>
